online-store/src/assets/icons/logo-canon.svg

<?xml version="1.0" encoding="UTF-8" standalone="no"?>
<!DOCTYPE svg PUBLIC "-//W3C//DTD SVG 1.1//EN" "http://www.w3.org/Graphics/SVG/1.1/DTD/svg11.dtd">

<svg version="1.1" xmlns="http://www.w3.org/2000/svg" height="168" width="800" viewBox="0 0 800 168">
<path id="C" d="m130.62 151.03c-37.195 0-67.339-30.16-67.339-67.362 0-37.204 30.144-67.335 67.339-67.335 13.11 0 25.35 3.739 35.69 10.22l-35.69 57.115 67.19-38.796c-7.3-11.631-17.77-21.653-30.43-29.258-16.11-9.645-38.52-15.614-63.3-15.614-35.348 0-66.359 12.845-83.653 32.081-12.804 14.22-20.427 32.117-20.427 51.586 0 19.483 7.623 37.393 20.427 51.623 17.339 19.26 47.888 32.03 82.653 32.03 34.76 0 65.3-12.78 82.65-32.03 0.95-1.06 1.87-2.13 2.74-3.24l-2.62-9.82c-12.19 17.4-32.38 28.8-55.23 28.8" fill="#BF1920" />
<path id="a" d="m353.38 163.27l-28.2-105.2c-4.53-17-20.01-29.495-38.44-29.495-4.78 0-9.36 0.854-13.61 2.4l-60.71 22.076h62.44l10.67 39.848c-10.35-8.908-23.83-14.328-38.59-14.328-29.31 0-53.04 19.641-53.04 43.869 0 24.23 23.73 43.9 53.04 43.9 21.1 0 39.76-10.33 51.27-26.2l6.19 23.13h48.98m-86.02-16.34c-13.52 0-24.48-10.95-24.48-24.49 0-13.52 10.96-24.48 24.48-24.48s24.49 10.96 24.49 24.48c0 13.54-10.97 24.49-24.49 24.49z" fill="#BF1920" />
<path id="n1" d="m468.36 28.593c-3.7 0-7.2 0.818-10.32 2.283l-38.98 18.166c-1.93-11.604-12.01-20.449-24.17-20.449-3.68 0-7.19 0.818-10.35 2.283l-47.59 22.175h33.46v110.22h48.98v-97.958c0-6.759 5.47-12.261 12.25-12.261 6.74 0 12.25 5.502 12.25 12.261v97.958h48.96v-110.22c0-13.517-10.97-24.457-24.49-24.457" fill="#BF1920" />
<path id="o" d="m652.01 97.959c0 38.311-31.05 69.361-69.35 69.361-38.33 0-69.4-31.05-69.4-69.361 0-38.301 31.07-69.366 69.4-69.366 38.3 0 69.35 31.066 69.35 69.366m-66.48-48.314c-2.18-8.162-10.57-13.007-18.73-10.813-8.15 2.185-13.02 10.58-10.83 18.741l23.79 88.697c2.2 8.17 10.57 13.01 18.73 10.85 8.16-2.21 13.01-10.6 10.82-18.76l-23.78-88.715z" fill="#BF1920" />
<path id="n2" d="m775.52 28.593c-3.71 0-7.23 0.818-10.4 2.283l-38.94 18.166c-1.92-11.604-12-20.449-24.16-20.449-3.68 0-7.19 0.818-10.36 2.283l-47.57 22.175h33.45v110.22h48.97v-97.958c0-6.759 5.48-12.261 12.26-12.261 6.76 0 12.23 5.502 12.23 12.261v97.958h49v-110.22c0-13.517-10.98-24.457-24.48-24.457" fill="#BF1920" />
</svg>

<svg width="800" height="168" viewBox="0 0 800 168" fill="none" xmlns="http://www.w3.org/2000/svg">
<path d="M130.62 151.03C93.425 151.03 63.281 120.87 63.281 83.668C63.281 46.464 93.425 16.333 130.62 16.333C143.73 16.333 155.97 20.072 166.31 26.553L130.62 83.668L197.81 44.872C190.51 33.241 180.04 23.219 167.38 15.614C151.27 5.969 128.86 0 104.08 0C68.732 0 37.721 12.845 20.427 32.081C7.623 46.301 0 64.198 0 83.667C0 103.15 7.623 121.06 20.427 135.29C37.766 154.55 68.315 167.32 103.08 167.32C137.84 167.32 168.38 154.54 185.73 135.29C186.68 134.23 187.6 133.16 188.47 132.05L185.85 122.23C173.66 139.63 153.47 151.03 130.62 151.03" fill="black"/>
<path d="M353.38 163.27L325.18 58.07C320.65 41.07 305.17 28.575 286.74 28.575C281.96 28.575 277.38 29.429 273.13 30.975L212.42 53.0509H274.86L285.53 92.899C275.18 83.991 261.7 78.5709 246.94 78.5709C217.63 78.5709 193.9 98.212 193.9 122.44C193.9 146.67 217.63 166.34 246.94 166.34C268.04 166.34 286.7 156.01 298.21 140.14L304.4 163.27H353.38M267.36 146.93C253.84 146.93 242.88 135.98 242.88 122.44C242.88 108.92 253.84 97.9599 267.36 97.9599C280.88 97.9599 291.85 108.92 291.85 122.44C291.85 135.98 280.88 146.93 267.36 146.93Z" fill="black"/>
<path d="M468.36 28.593C464.66 28.593 461.16 29.411 458.04 30.876L419.06 49.042C417.13 37.438 407.05 28.593 394.89 28.593C391.21 28.593 387.7 29.411 384.54 30.876L336.95 53.051H370.41V163.271H419.39V65.313C419.39 58.554 424.86 53.052 431.64 53.052C438.38 53.052 443.89 58.554 443.89 65.313V163.271H492.85V53.051C492.85 39.534 481.88 28.594 468.36 28.594" fill="black"/>
<path d="M652.01 97.959C652.01 136.27 620.96 167.32 582.66 167.32C544.33 167.32 513.26 136.27 513.26 97.959C513.26 59.658 544.33 28.593 582.66 28.593C620.96 28.593 652.01 59.659 652.01 97.959M585.53 49.645C583.35 41.483 574.96 36.638 566.8 38.832C558.65 41.017 553.78 49.412 555.97 57.573L579.76 146.27C581.96 154.44 590.33 159.28 598.49 157.12C606.65 154.91 611.5 146.52 609.31 138.36L585.53 49.645V49.645Z" fill="black"/>
<path d="M775.52 28.593C771.81 28.593 768.29 29.411 765.12 30.876L726.18 49.042C724.26 37.438 714.18 28.593 702.02 28.593C698.34 28.593 694.83 29.411 691.66 30.876L644.09 53.051H677.54V163.271H726.51V65.313C726.51 58.554 731.99 53.052 738.77 53.052C745.53 53.052 751 58.554 751 65.313V163.271H800V53.051C800 39.534 789.02 28.594 775.52 28.594" fill="black"/>
</svg>
